cutejava-front/src/assets/icons/svg/storage-space.svg

<?xml version="1.0" standalone="no"?><!DOCTYPE svg PUBLIC "-//W3C//DTD SVG 1.1//EN" "http://www.w3.org/Graphics/SVG/1.1/DTD/svg11.dtd"><svg t="1608282900803" class="icon" viewBox="0 0 1024 1024" version="1.1" xmlns="http://www.w3.org/2000/svg" p-id="1988" xmlns:xlink="http://www.w3.org/1999/xlink" width="200" height="200"><defs><style type="text/css"></style></defs><path d="M927.447116 285.415728a62.649676 62.649676 0 0 0-31.537932-54.125911L506.373105 8.393352a62.649676 62.649676 0 0 0-62.649675 0l-387.831326 225.879783A62.649676 62.649676 0 0 0 25.206548 288.825234V737.601482a62.649676 62.649676 0 0 0 31.537932 54.125911l387.831326 222.044089a62.649676 62.649676 0 0 0 62.223488 0l389.536079-225.027407a62.649676 62.649676 0 0 0 31.537932-54.552099zM474.408985 74.026345l328.164968 187.949028-151.296836 96.744737-143.199259-81.828148a63.928241 63.928241 0 0 0-63.92824 0l-143.625447 85.237654L148.801147 264.532502z m0 605.613533l-127.856481-73.730571 121.889845-75.435324 119.758904 85.237654z m-143.625447-252.303456l112.513703-65.632994v112.513703a26.849861 26.849861 0 0 0 0 2.983318H438.60917L331.209726 545.816761z m172.606249 47.306898V357.867733l119.758904 67.337747v138.085l-121.037468-85.237654a29.406991 29.406991 0 0 0 0-5.11426zM97.658554 317.806036l160.672978 101.858997V601.647424a63.928241 63.928241 0 0 0 31.96412 54.978287l150.018271 85.237654v184.539521l-340.950616-195.620416z m415.533564 609.023038v-184.539521l150.870647-85.237654a63.928241 63.928241 0 0 0 31.964121-55.404475v-178.999073-4.261883l160.246789-101.432808v412.976433z m0 0" p-id="1989"></path></svg>

<svg class="icon" viewBox="0 0 1024 1024" xmlns="http://www.w3.org/2000/svg" width="200" height="200"><defs><style/></defs><path d="M927.447 285.416a62.65 62.65 0 0 0-31.538-54.126L506.373 8.393a62.65 62.65 0 0 0-62.65 0l-387.83 225.88a62.65 62.65 0 0 0-30.686 54.552v448.776a62.65 62.65 0 0 0 31.537 54.126l387.832 222.044a62.65 62.65 0 0 0 62.223 0l389.536-225.027a62.65 62.65 0 0 0 31.538-54.552zM474.41 74.026l328.165 187.95-151.297 96.744-143.2-81.828a63.928 63.928 0 0 0-63.927 0L300.524 362.13l-151.723-97.597zm0 605.614l-127.856-73.73 121.89-75.436L588.2 615.712zM330.784 427.336l112.513-65.633v112.514a26.85 26.85 0 0 0 0 2.983h-4.688l-107.4 68.617zm172.606 47.307V357.868l119.759 67.337V563.29L502.11 478.053a29.407 29.407 0 0 0 0-5.114zM97.659 317.806l160.673 101.859v181.982a63.928 63.928 0 0 0 31.964 54.979l150.018 85.237v184.54l-340.95-195.62zm415.533 609.023V742.29l150.87-85.237a63.928 63.928 0 0 0 31.965-55.405V418.386l160.247-101.432V729.93zm0 0"/></svg>
